X:11
M:C|
L:1/8
Q:1/2=100
K:G
g2d2 cBAG|F2A2 A4|E2 GE F2 AF|G2"G.Fl.""_Vio."[B2D2] [d2B,2][g2G,2]|\
g2d2 cBAG|F2A2 A4|E2 GE F2 AF|G2G2 G4:|
|:dBdB G2G2|AFAF D4|E2 GE F2 AF|{AB}c2B2B2A2|dBdB G2G2|\

